X:30
T:Maid of Ardagh
Z: id:dc-polka-21
M:2/4
L:1/8
K:D Major
FA BA|de f2|fe/f/ gc|ed BA|!
FA BA|de f2|fe/f/ gc|ed d2:|!
ef/e/ ce|fe a2|ef/e/ ce|fe c/B/A|!
ef/e/ ce|fe a2|ef/e/ cB|BA A2:|!

